packages/core/src/svgs/mind.svg

<svg width="24" height="24" viewBox="0 0 24 24" fill="none" xmlns="http://www.w3.org/2000/svg">
<g clip-path="url(#clip0_31_13888)">
<path d="M0 0H24V24H0V0Z" fill="url(#paint0_linear_31_13888)"/>
<path fill-rule="evenodd" clip-rule="evenodd" d="M11.3402 4.7613C11.4816 4.83844 11.5716 4.98844 11.5716 5.15559V8.90987C11.5716 9.04702 11.5074 9.17987 11.4002 9.2613L10.1702 10.2127C10.7488 10.6156 11.5716 11.1856 11.5716 11.9999C11.5716 12.8613 10.8216 13.4699 10.1488 13.847L11.3874 14.7256C11.5031 14.8113 11.5716 14.9442 11.5716 15.0899V18.8442C11.5716 19.007 11.4859 19.157 11.3445 19.2342C11.2758 19.2713 11.1981 19.2886 11.1201 19.2841C11.0421 19.2796 10.967 19.2534 10.9031 19.2084L6.18878 15.8999C5.87456 15.6879 5.61565 15.4037 5.43373 15.0712C5.2518 14.7386 5.15213 14.3674 5.14307 13.9884C5.14307 13.4442 5.38307 12.7884 6.1845 12.017C5.57164 11.4942 5.14307 10.8599 5.14307 10.0113C5.14307 8.99559 6.32164 8.12559 7.04592 7.65844L10.8902 4.79987C11.0188 4.7013 11.1945 4.68844 11.3402 4.7613ZM6.96021 8.80273C6.64735 9.05987 6.00021 9.54416 6.00021 10.0113C6.00021 10.6627 6.39449 11.0656 6.85735 11.447L8.14307 10.6027L9.00021 11.117L7.57735 11.9956L9.34307 13.2684C9.81449 13.067 10.7145 12.6256 10.7145 11.9999C10.7145 11.3356 9.66021 10.9242 9.19307 10.6027C8.45164 10.0884 7.44021 9.60844 6.96449 8.80273H6.96021ZM6.8745 12.5613C6.0945 13.2727 6.00021 13.7484 6.00021 13.9884C6.00021 14.3013 6.15878 14.8156 6.6645 15.167H6.66878L7.03307 15.4242C7.14941 15.1068 7.33182 14.8177 7.56825 14.5761C7.80467 14.3345 8.08971 14.1459 8.4045 14.0227L9.03878 14.6484C8.5245 14.8799 7.99307 15.347 7.8945 15.5699C7.82592 15.7284 7.80878 15.8699 7.81735 15.9727L10.7145 18.0084V15.3213C9.43007 14.4075 8.15005 13.4875 6.8745 12.5613ZM7.66307 8.28844C7.95449 8.91416 8.87592 9.32559 9.41592 9.69416L10.7145 8.68702V6.0213L7.66307 8.29273V8.28844ZM12.6559 4.76559C12.7237 4.72863 12.8004 4.71108 12.8775 4.71486C12.9546 4.71864 13.0292 4.74361 13.0931 4.78701L17.5931 7.8813C18.3431 8.3913 18.8574 9.05559 18.8574 10.0113C18.8574 10.7956 18.3645 11.4556 17.8288 11.9656C18.3002 12.3513 18.8574 12.9942 18.8574 13.9884C18.8574 15.2313 17.9531 15.827 17.3574 16.217L17.1645 16.3413C16.8388 16.5684 14.3145 18.3384 13.1016 19.2084C12.9731 19.2984 12.8016 19.3113 12.6602 19.2342C12.59 19.1962 12.5313 19.1398 12.4906 19.0711C12.4498 19.0025 12.4285 18.924 12.4288 18.8442V15.0899C12.4288 14.9527 12.4931 14.8199 12.6002 14.7384L13.8045 13.8084C13.1359 13.3927 12.4288 12.917 12.4288 11.9999C12.4288 11.1942 13.2559 10.5684 13.8216 10.1442L12.6131 9.26987C12.4974 9.18416 12.4288 9.05559 12.4288 8.90987V5.15559C12.4288 4.99273 12.5145 4.84273 12.6559 4.76987V4.76559ZM14.5674 10.6799C14.2374 10.9199 13.2859 11.4856 13.2859 11.9999C13.2859 12.7113 14.3316 13.1056 14.7902 13.3884L14.8074 13.397C15.6131 13.9499 16.6202 14.4213 17.1474 15.2956C17.6445 14.9484 18.0002 14.6227 18.0002 13.9884C18.0002 13.2899 17.5588 12.8484 17.1516 12.5442L15.8574 13.547L15.0002 13.1056L16.4145 12.0127L14.5716 10.6842L14.5674 10.6799ZM17.1174 11.4427L13.2859 8.67844V5.97844L16.0502 7.87701C16.5002 8.18559 15.1759 9.20559 15.0002 9.3513L15.8574 9.79273C16.3374 9.39416 16.6974 9.12416 16.9159 8.47273L17.1216 8.61416C17.6231 8.95702 18.0002 9.35559 18.0002 10.0113C18.0002 10.5942 17.5116 11.0827 17.1174 11.4427ZM16.4316 15.7842C16.0459 15.0984 15.2016 14.7299 14.5888 14.3056L13.2859 15.3127V17.9999L16.4359 15.7842H16.4316Z" fill="url(#paint1_linear_31_13888)"/>
</g>
<defs>
<linearGradient id="paint0_linear_31_13888" x1="4.46571" y1="4.16143" x2="29.2071" y2="32.58" gradientUnits="userSpaceOnUse">
<stop stop-color="#1A1E21"/>
<stop offset="1" stop-color="#06060A"/>
</linearGradient>
<linearGradient id="paint1_linear_31_13888" x1="12.0002" y1="4.71416" x2="12.0002" y2="19.2856" gradientUnits="userSpaceOnUse">
<stop stop-color="#FF7EEE"/>
<stop offset="1" stop-color="#9A0086"/>
</linearGradient>
<clipPath id="clip0_31_13888">
<rect width="24" height="24" fill="white"/>
</clipPath>
</defs>
</svg>

<svg xmlns="http://www.w3.org/2000/svg" width="24" height="24" fill="none" viewBox="0 0 24 24"><g clip-path="url(#a)"><path fill="url(#b)" d="M0 0h24v24H0z"/><path fill="url(#c)" fill-rule="evenodd" d="M11.34 4.761a.45.45 0 0 1 .232.395V8.91c0 .137-.065.27-.172.351l-1.23.952c.579.403 1.402.973 1.402 1.787 0 .861-.75 1.47-1.423 1.847l1.238.879a.45.45 0 0 1 .185.364v3.754a.44.44 0 0 1-.227.39.42.42 0 0 1-.442-.026L6.19 15.9a2.38 2.38 0 0 1-1.046-1.912c0-.544.24-1.2 1.042-1.971-.613-.523-1.042-1.157-1.042-2.006 0-1.015 1.179-1.885 1.903-2.353L10.89 4.8a.43.43 0 0 1 .45-.039M6.96 8.803C6.647 9.06 6 9.544 6 10.01c0 .652.394 1.055.857 1.436l1.286-.844.857.514-1.423.879 1.766 1.272c.471-.201 1.371-.642 1.371-1.268 0-.664-1.054-1.076-1.52-1.397-.742-.515-1.754-.995-2.23-1.8zm-.085 3.758c-.78.712-.875 1.187-.875 1.427 0 .313.159.828.665 1.179h.004l.364.257a2.39 2.39 0 0 1 1.372-1.401l.634.625c-.514.232-1.046.699-1.144.922a.86.86 0 0 0-.078.403l2.897 2.035v-2.687a489 489 0 0 1-3.84-2.76m.788-4.273c.291.626 1.213 1.038 1.753 1.406l1.298-1.007V6.021l-3.05 2.272zm4.993-3.522a.42.42 0 0 1 .437.021l4.5 3.094c.75.51 1.264 1.175 1.264 2.13 0 .785-.492 1.445-1.028 1.955.471.385 1.028 1.028 1.028 2.022 0 1.243-.904 1.839-1.5 2.229l-.192.124c-.326.227-2.85 1.997-4.063 2.867a.42.42 0 0 1-.442.026.44.44 0 0 1-.231-.39V15.09c0-.137.064-.27.171-.352l1.205-.93c-.67-.415-1.376-.891-1.376-1.808 0-.806.827-1.432 1.393-1.856l-1.209-.874a.44.44 0 0 1-.184-.36V5.156a.43.43 0 0 1 .227-.386zm1.911 5.914c-.33.24-1.281.806-1.281 1.32 0 .711 1.046 1.106 1.504 1.388l.017.009c.806.553 1.813 1.024 2.34 1.899.498-.348.853-.673.853-1.308 0-.698-.441-1.14-.848-1.444l-1.295 1.003-.857-.441 1.415-1.093-1.843-1.329zm2.55.763-3.831-2.765v-2.7l2.764 1.899c.45.309-.874 1.329-1.05 1.474l.857.442c.48-.399.84-.669 1.059-1.32l.206.141c.501.343.878.742.878 1.397 0 .583-.488 1.072-.883 1.432m-.685 4.341c-.386-.686-1.23-1.054-1.843-1.478l-1.303 1.007V18l3.15-2.216z" clip-rule="evenodd"/></g><defs><linearGradient id="b" x1="4.466" x2="29.207" y1="4.161" y2="32.58" gradientUnits="userSpaceOnUse"><stop stop-color="#1A1E21"/><stop offset="1" stop-color="#06060A"/></linearGradient><linearGradient id="c" x1="12" x2="12" y1="4.714" y2="19.286" gradientUnits="userSpaceOnUse"><stop stop-color="#FF7EEE"/><stop offset="1" stop-color="#9A0086"/></linearGradient><clipPath id="a"><path fill="#fff" d="M0 0h24v24H0z"/></clipPath></defs></svg>
